app/client/src/assets/icons/blueprintjs/20px/array-date.svg

<?xml version="1.0" encoding="UTF-8"?>
<svg width="20px" height="20px" viewBox="0 0 20 20" version="1.1" xmlns="http://www.w3.org/2000/svg" xmlns:xlink="http://www.w3.org/1999/xlink">
    <title>array-date</title>
    <g stroke-width="1" fill-rule="evenodd">
        <path d="M19,0 C19.5128358,0 19.9355072,0.38604019 19.9932723,0.883378875 L20,1 L20,19 C20,19.5128358 19.6139598,19.9355072 19.1166211,19.9932723 L19,20 L15,20 C14.4477153,20 14,19.5522847 14,19 C14,18.4871642 14.3860402,18.0644928 14.8833789,18.0067277 L15,18 L18,18 L18,2 L15,2 C14.4871642,2 14.0644928,1.61395981 14.0067277,1.11662113 L14,1 C14,0.487164161 14.3860402,0.0644928393 14.8833789,0.00672773132 L15,0 L19,0 Z M5,0 C5.55228475,0 6,0.44771525 6,1 C6,1.51283584 5.61395981,1.93550716 5.11662113,1.99327227 L5,2 L2,2 L2,18 L5,18 C5.51283584,18 5.93550716,18.3860402 5.99327227,18.8833789 L6,19 C6,19.5128358 5.61395981,19.9355072 5.11662113,19.9932723 L5,20 L1,20 C0.487164161,20 0.0644928393,19.6139598 0.00672773133,19.1166211 L0,19 L0,1 C0,0.487164161 0.38604019,0.0644928393 0.883378875,0.00672773133 L1,0 L5,0 Z M7.5,5 C7.77614237,5 8,5.22385763 8,5.5 L8,6 L12,6 L12,5.5 C12,5.22385763 12.2238576,5 12.5,5 L13.5,5 C13.7761424,5 14,5.22385763 14,5.5 L14,6 L15,6 C15.5128358,6 15.9355072,6.38604019 15.9932723,6.88337887 L16,7 L16,14 C16,14.5128358 15.6139598,14.9355072 15.1166211,14.9932723 L15,15 L5,15 C4.48716416,15 4.06449284,14.6139598 4.00672773,14.1166211 L4,14 L4,7 C4,6.48716416 4.38604019,6.06449284 4.88337887,6.00672773 L5,6 L6,6 L6,5.5 C6,5.22385763 6.22385763,5 6.5,5 L7.5,5 Z M15,9 L5,9 L5,14 L15,14 L15,9 Z"></path>
    </g>
</svg>

<svg xmlns="http://www.w3.org/2000/svg" width="20" height="20"><path fill-rule="evenodd" d="M19 0a1 1 0 0 1 .993.883L20 1v18a1 1 0 0 1-.883.993L19 20h-4a1 1 0 0 1-.117-1.993L15 18h3V2h-3a1 1 0 0 1-.993-.883L14 1a1 1 0 0 1 .883-.993L15 0h4ZM5 0a1 1 0 0 1 .117 1.993L5 2H2v16h3a1 1 0 0 1 .993.883L6 19a1 1 0 0 1-.883.993L5 20H1a1 1 0 0 1-.993-.883L0 19V1A1 1 0 0 1 .883.007L1 0h4Zm2.5 5a.5.5 0 0 1 .5.5V6h4v-.5a.5.5 0 0 1 .5-.5h1a.5.5 0 0 1 .5.5V6h1a1 1 0 0 1 .993.883L16 7v7a1 1 0 0 1-.883.993L15 15H5a1 1 0 0 1-.993-.883L4 14V7a1 1 0 0 1 .883-.993L5 6h1v-.5a.5.5 0 0 1 .5-.5h1ZM15 9H5v5h10V9Z"/></svg>
